X:321
T:Burgondy Flight.
C:John Malchair's Third Collection of Tunes
F:https://www.vwml.org/record/Malchair/3619/p32
F:www.vwml.org/topics/historic-dance-and-tune-books/Malchair
Z:Eric Conrad Jan 2020
N:NB1 No repeats in MS.  Assuming parts A and C are repeated.  Part B seems to be a bridge.
N:NB4 Part C has 7 measures.  A pickup rest has been added for the repeat to the C part.
M:6/8
L:1/8
R:jig
K:Bb
P:A
|: "_NB1"f/e/ | d2e c>BA | B3 F2A | c>de d2c | d3- d2e/f/ |
g3 fed | cde f2e | d>cB FBA | B3- B2 :|
P:B
A/B/ | c>dc cdc | cAF FBc | d>ed c2B | f3- f2f | g3 f3 ||
P:C
|: e2z dga | b2z a2z | g2z fga | bed cac |
BgB AfA | GAB FBA |1 B3- B2 "_NB4"z :|2 B3- B2 |]


